X: 43
T: Missa L'homme arm\'e / Credo
N: Derived from Ock1008c-Missa_Lhomme_arme-Credo.krn
C: Johannes Ockeghem
%%abc-version 2.0
%%abcx-abcm2ps-target-version 5.9.1 (29 Sep 2008)
%%abc-creator hum2abc beta
%%abcx-conversion-date 2019/02/17 07:26:14
%%abc-edited-by Jesse Rodin
%%abc-edited-by Jesse Rodin; Victoria Chang 2012/03/27
%%abcx-initial-encoding-date 2012/03/27/
%%humdrum-veritas 591749065
%%humdrum-veritas-data 3705881400
%%linebreak <none>
%%barnumbers 0
L: 1/4
M: 3/1
Q: 1/2=120
%%staves [1 2 3 4]
V: 1 clef=treble
V: 2 clef=treble-8
V: 3 clef=treble-8
V: 4 clef=bass
K: C
[V:1] G8G4 | 
[V:2] d8d4 | 
[V:3] G8G4 | 
[V:4] z12 :
[V:1] A4G4c4- | 
[V:2] e4c2d2e4 | 
[V:3] c6BAG4 | 
[V:4] C,8C,4 :
[V:1] c2d4c2A3G | 
[V:2] f6e2c3d | 
[V:3] F4z4A4 | 
[V:4] F,8F,4 | 
[V:1] G4F3EF2A2- | 
[V:2] e4A2B4A2 | 
[V:3] c4d8 | 
[V:4] E,4D,8 :
[V:1] A2G2E4E2G2- | 
[V:2] c8z4 | 
[V:3] e6g4c2- | 
[V:4] C,12- :
[V:1] G2C4A,2G,2C2 | 
[V:2] e8g4 | 
[V:3] c2A2G2c3de2 | 
[V:4] C,12 | 
[V:1] D2E4C2D4 | 
[V:2] f2g2c2A2G4 | 
[V:3] d2G2A2c4B2 | 
[V:4] z12 :
[V:1] C4z4c4 | 
[V:2] g12- | 
[V:3] c8e4- | 
[V:4] z12 :
[V:1] c4d6B2 | 
[V:2] g4f8 | 
[V:3] e4d8 | 
[V:4] z12 | 
[V:1] B3cd2e2c2f2 | 
[V:2] g8a4 | 
[V:3] G6E2F4 | 
[V:4] z12 :
[V:1] e2d4c2B2G2- | 
[V:2] g4f2e2g4 | 
[V:3] G4A4G4 | 
[V:4] z12 :
[V:1] G2c4B2d4 | 
[V:2] e4c2G2B4 | 
[V:3] c3de2d4g2- | 
[V:4] z12 | 
[V:1] e2d4c2B3A | 
[V:2] c2d2G2g4g2- | 
[V:3] g2f2g2e2d4 | 
[V:4] z4G,4G,4 :
[V:1] c8z4 | 
[V:2] gea4gfe3d | 
[V:3] c6BAG4 | 
[V:4] C,4z4z4 :
[V:1] c4c2BAG4 | 
[V:2] f2a4f2e4 | 
[V:3] F4z4c4 | 
[V:4] z12 | 
[V:1] F4z4c4 | 
[V:2] d2a4g2f2a2- | 
[V:3] d6B2A4 | 
[V:4] z12 :
[V:1] d4B2G2A4 | 
[V:2] a2g2e4f4- | 
[V:3] F2G4E2D2F2- | 
[V:4] z12 :
[V:1] c2_B3A/G/F4F2 | 
[V:2] f2e2d4c2_B2 | 
[V:3] F2G2_B3A/_B/A2d2- | 
[V:4] z12 | 
[V:1] _B3A/B/AGG4^F2 | 
[V:2] G2d8c2 | 
[V:3] d2G2F2G2A4 | 
[V:4] z12 :
[V:1] G12 | 
[V:2] d8B3c | 
[V:3] G8z4 | 
[V:4] z4z4G,4 :
[V:1] z12 | 
[V:2] d2e4d2B2d2- | 
[V:3] z2C4G4B2 | 
[V:4] G,4G,8 | 
[V:1] z12 | 
[V:2] dcA2A2B2c2d2 | 
[V:3] A4c2d2A2D2 | 
[V:4] F,12 :
[V:1] z12 | 
[V:2] G2c2d2B4AB | 
[V:3] E2G4F2F3E | 
[V:4] E,4D,8 :
[V:1] E4E2E2E4 | 
[V:2] c8z4 | 
[V:3] G12- | 
[V:4] C,12 | 
[V:1] D6G4E2 | 
[V:2] B8c4 | 
[V:3] G8C4 | 
[V:4] z12 :
[V:1] D2G4F2D4 | 
[V:2] B4G2A2B4 | 
[V:3] G4E2D4G2- | 
[V:4] z12 :
[V:1] E4z4D2F2 | 
[V:2] G4c2B2A4 | 
[V:3] GCG2A2G4F2 | 
[V:4] z12 | 
[V:1] E2G4E2D4 | 
[V:2] G4z4z4 | 
[V:3] G3AB2c2d2B2 | 
[V:4] G,4G,4G,4 :
[V:1] E4C4z4 | 
[V:2] g12 | 
[V:3] c6G2c3d | 
[V:4] C,12- :
[V:1] G4A2G2c3d | 
[V:2] c8e3f | 
[V:3] e4c2B2A4 | 
[V:4] C,12 | 
[V:1] e4c2B2A4 | 
[V:2] g4e2f4e2 | 
[V:3] G2c4d4c2 | 
[V:4] z12 :
[V:1] G2c4d2e4 | 
[V:2] d2c2f4g2a2 | 
[V:3] B2A2z4z4 | 
[V:4] z12 :
[V:1] B2c2A4G4 | 
[V:2] g2e2f2d2z2g2- | 
[V:3] z12 | 
[V:4] z12 | 
[V:1] E2C2G4B2A2 | 
[V:2] g2e3cc2G2c2- | 
[V:3] z12 | 
[V:4] z12 :
[V:1] c4B2e3de2- | 
[V:2] cdefg8 | 
[V:3] z4z4c4 | 
[V:4] z12 :
[V:1] e2d4c4B2 | 
[V:2] c2f4e2d4 | 
[V:3] A2B4c2G4 | 
[V:4] z12 | 
[V:1] c4z4c4 | 
[V:2] e8e4 | 
[V:3] z4A8 | 
[V:4] C8C4 :
[V:1] d4d4d4 | 
[V:2] g4g4f4 | 
[V:3] G6E2D4 | 
[V:4] B,8B,4 :
[V:1] e6d2c4 | 
[V:2] e4g8- | 
[V:3] C4z4c4 | 
[V:4] C8C4 | 
[V:1] B8G4 | 
[V:2] g8e4 | 
[V:3] d6B2c4 | 
[V:4] G,8z4 :
[V:1] A6G2E4 | 
[V:2] f6edc4 | 
[V:3] F4F4A4 | 
[V:4] C8C4 :
[V:1] D4G2F2D4 | 
[V:2] g3fd4z4 | 
[V:3] z4G4G4 | 
[V:4] B,8B,4 | 
[V:1] C4z4A,4 | 
[V:2] g4a8 | 
[V:3] e4e4e4 | 
[V:4] C8C4 :
[V:1] B,4B,4B,4 | 
[V:2] g6fed4 | 
[V:3] d6e2f2g2 | 
[V:4] G,8z4 :
[V:1] C3DE2F2G4 | 
[V:2] c2A2c3de4- | 
[V:3] e2c4A2G2c2- | 
[V:4] z12 | 
[V:1] A2c2B2A4^G2 | 
[V:2] e4f2e4d2 | 
[V:3] c4d2A2B4 | 
[V:4] z12 :
[V:1] A4G2F2E4 | 
[V:2] e6d2c4 | 
[V:3] A3Bc2d2A2c2 | 
[V:4] z4z4C4 :
[V:1] D8z4 | 
[V:2] G4B4A4 | 
[V:3] B2G3FG2A2F2 | 
[V:4] D8C4 | 
[V:1] z4z4c4 | 
[V:2] G2g4^f2^f2e2 | 
[V:3] G4D4z4 | 
[V:4] B,4A,8 :
[V:1] d8c4 | 
[V:2] g2d4B2A4 | 
[V:3] z4z4c4 | 
[V:4] G,8z4 :
[V:1] B4A8 | 
[V:2] G4F8 | 
[V:3] d8c4 | 
[V:4] z12 | 
[V:1] G4F2E4D2 | 
[V:2] G2c4B2G2A2 | 
[V:3] B3GA2G4F2 | 
[V:4] z12 :
[V:1] G3AB4A4 | 
[V:2] B2c2d4c2d2- | 
[V:3] E4D2G2A2B2- | 
[V:4] z12 :
[V:1] G2A4d3Gc2 | 
[V:2] d2e2f3ge3d | 
[V:3] B2A2d3Gc3B | 
[V:4] z12 | 
[V:1] B2A3GG4^F2 | 
[V:2] e2f2d2d4c2 | 
[V:3] G2F2G4A4 | 
[V:4] z12 :
[V:1] G12 | 
[V:2] e2d2B6c2- | 
[V:3] G8E3F | 
[V:4] z12 :
[V:1] z12 | 
[V:2] c2B2G2c4B2 | 
[V:3] A2G4E2D4 | 
[V:4] z12 | 
[V:1] z12 | 
[V:2] c12- | 
[V:3] z4G6FG | 
[V:4] C,8C,4 :
[V:1] z12 | 
[V:2] c4A6F2 | 
[V:3] A6F4D2 | 
[V:4] F,8F,4 :
[V:1] z12 | 
[V:2] G4F4z4 | 
[V:3] C2c2d2B4A2 | 
[V:4] E,4D,8 | 
[V:1] G4G4G4 | 
[V:2] G8E4 | 
[V:3] c6d2e2c2- | 
[V:4] C,12 :
[V:1] A4G2c2d2B2 | 
[V:2] F4c4G4 | 
[V:3] cdf2g2e2d4 | 
[V:4] z12 :
[V:1] c4d8 | 
[V:2] g12- | 
[V:3] c4B2B4AB | 
[V:4] z4G,4G,4 | 
[V:1] e8e4 | 
[V:2] g4a8 | 
[V:3] c8A4 | 
[V:4] C,4z4z4 :
[V:1] d6c2B3A | 
[V:2] z2g4fed2e2 | 
[V:3] B4B4B4 | 
[V:4] G,4G,4G,4 :
[V:1] A4c6BA | 
[V:2] f3ec8 | 
[V:3] c4A2F2A2B2 | 
[V:4] F,12 :
[V:1] G3AB2A4F2 | 
[V:2] z2G2F2A4B2 | 
[V:3] c4d8 | 
[V:4] E,4D,8 :
[V:1] E12 ||  
[V:2] c12 ||  
[V:3] G12 ||  
[V:4] C,12 ||  
[V:1] [M:3/1]E4E2C2F4 | 
[V:2] [M:3/1]z6z6 | 
[V:3] [M:3/1]z6z6 | 
[V:4] [M:3/1]C,4C,2F,4F,2 | 
[V:1] G2A3GE4E2 | 
[V:2] z6c4c2 | 
[V:3] z6z6 | 
[V:4] E,2D,4C,6 | 
[V:1] C2F4E2D4 | 
[V:2] A4A2G2g4 | 
[V:3] z6B4B2 | 
[V:4] z6z2G,2G,2 | 
[V:1] C4G4A2c2 | 
[V:2] e4e2dg2^f^fe | 
[V:3] G2c4B2A4 | 
[V:4] C,4z2z6 | 
[V:1] Bcde2dcAGc2B | 
[V:2] g6c2G4 | 
[V:3] G3c2defged2 | 
[V:4] z6z6 | 
[V:1] c2z2c2B4B2 | 
[V:2] g2a2f2g4e2 | 
[V:3] c2A4G2z2B2 | 
[V:4] z6z2G,2G,2 | 
[V:1] d3cA2c2d4 | 
[V:2] d2f3ec2BB2A | 
[V:3] G2A2D2G2F4 | 
[V:4] G,2F,4E,2D,4 | 
[V:1] e4e2d2c4 | 
[V:2] c6B2A4 | 
[V:3] G4E4F4 | 
[V:4] C,6z6 | 
[V:1] B2A3GG4^F2 | 
[V:2] d2c2d2e2c4 | 
[V:3] G2A2B2c2A4 | 
[V:4] z6z6 | 
[V:1] G4z2G2G2G2 | 
[V:2] d4z2e4e2 | 
[V:3] z6c4c2 | 
[V:4] G,2G,2G,2C,6 | 
[V:1] C6z6 | 
[V:2] g2g2g2c4c2 | 
[V:3] e4e2g2g2g2 | 
[V:4] z6z6 | 
[V:1] z6G2G2G2 | 
[V:2] A4c4G4 | 
[V:3] c2f4e2d4 | 
[V:4] C4C2B,4B,2 | 
[V:1] E4E2D2G3F | 
[V:2] g2a4g4e2 | 
[V:3] c2A4B4G2 | 
[V:4] C4C2G,6 | 
[V:1] E2D4C2G,2C2- | 
[V:2] c2G4g4g2 | 
[V:3] Ac2BBAc2C2E2 | 
[V:4] z6z6 | 
[V:1] C2D4E4C2 | 
[V:2] f4f2g4e2 | 
[V:3] F2D4C4z2 | 
[V:4] z6C4C2 | 
[V:1] D2G4A2c3A | 
[V:2] d2e4f2a4 | 
[V:3] G4G2F4F2 | 
[V:4] B,4B,2C4C2 | 
[V:1] B2d3cB2A2z2 | 
[V:2] g6f3a2g | 
[V:3] G4E2D2F4 | 
[V:4] G,4C2D4C2 | 
[V:1] d3cA2B4B2 | 
[V:2] ed2g^feg4z2 | 
[V:3] G2D4d6 | 
[V:4] B,2A,4G,6 | 
[V:1] B2d3cB2AA2G | 
[V:2] g4a2gefe2d | 
[V:3] G4F2G2AcB2 | 
[V:4] z6z6 | 
[V:1] A2GFE2D4C2 | 
[V:2] fe2d2^cd2D2F2 | 
[V:3] A2z2A2_B3A3 | 
[V:4] z6z6 | 
[V:1] B,2A,4G,2A,C2B, | 
[V:2] G2D4z6 | 
[V:3] G3F3_B2A2G2 | 
[V:4] z6z6 | 
[V:1] CE3/D/DzG3/F/FG_B3/A/A | 
[V:2] z6z6 | 
[V:3] C2B,2E2D2G2F2 | 
[V:4] z6z6 | 
[V:1] zd2c_BA2FGEDz | 
[V:2] z6z6 | 
[V:3] _B2A3dcdec=Bc | 
[V:4] z6z6 | 
[V:1] C=B,D2FG_BA2G2^F | 
[V:2] z6z6 | 
[V:3] AG2d2G2DGBA2 | 
[V:4] z6z6 | 
[V:1] G2z4G2G2G2 | 
[V:2] d2d2d2e4d2 | 
[V:3] G2G2G2c4B2 | 
[V:4] z6z6 | 
[V:1] c4c2B2A4 | 
[V:2] e2f3ee2fd2c/d/ | 
[V:3] A4A2G2F4 | 
[V:4] z6z6 | 
[V:1] G4E2C2D4 | 
[V:2] e2c4z2B4 | 
[V:3] E4C2A,2B,4 | 
[V:4] C,4C,2F,4F,2 | 
[V:1] C2z4E2E2E2 | 
[V:2] GcdB2Ac2z2c2 | 
[V:3] C2F4G2G2C2 | 
[V:4] E,2D,4C,4z2 | 
[V:1] D4C2B,4C2 | 
[V:2] B4c2d4c2 | 
[V:3] z6G2G2C2 | 
[V:4] G,2G,2C,2z6 | 
[V:1] E2D3CB,2A,4 | 
[V:2] B6G2D4 | 
[V:3] G8^F4 | 
[V:4] z6z6 | 
[V:1] G,4B,2E2D4 | 
[V:2] d3cB2G2D4 | 
[V:3] G2d3cB2A4 | 
[V:4] z2G,2G,2G,2F,4 | 
[V:1] C2F3DEG2FEC- | 
[V:2] E2z2F2GA_B2G2 | 
[V:3] G2zA2Bced2c2 | 
[V:4] E,2D,4C,2_B,,2C,2 | 
[V:1] CA,G,C2B,C6 ||  
[V:2] F2zE2DE3FG2 ||  
[V:3] AcBG2FG6 ||  
[V:4] F,2G,C,D,2C,6 ||  
[V:1] [M:3/1]C12 | 
[V:2] [M:3/1]z12 | 
[V:3] [M:3/1]c8c4 | 
[V:4] [M:3/1]z12 :
[V:1] E6F2G4 | 
[V:2] z12 | 
[V:3] G4c2d2e4 | 
[V:4] C,8C,4 | 
[V:1] A8A4 | 
[V:2] c12- | 
[V:3] A8A4 | 
[V:4] F,8F,4 :
[V:1] G4F6E2 | 
[V:2] c4d8 | 
[V:3] z4A4B4 | 
[V:4] E,4D,8 | 
[V:1] E4z4B4 | 
[V:2] e3fg2a4^g2 | 
[V:3] c6A2B4 | 
[V:4] C,8z4 :
[V:1] c4c2c3BG2 | 
[V:2] a6gfe4 | 
[V:3] A8c4 | 
[V:4] z12 | 
[V:1] z2E2E2E2E2E2 | 
[V:2] d2g4c2A2c2 | 
[V:3] G4c8 | 
[V:4] z12 :
[V:1] D6G3A/B/c2 | 
[V:2] G2g3fd2c4 | 
[V:3] B3cd4e4 | 
[V:4] G,4G,4C,4 | 
[V:1] B2A3GG4^F2 | 
[V:2] f2e2f2d4c2 | 
[V:3] d2c2d2B2A4 | 
[V:4] z12 :
[V:1] G8z4 | 
[V:2] d4e3fg4 | 
[V:3] G6c4d2 | 
[V:4] z12 | 
[V:1] G4G4E4 | 
[V:2] c4z4c4 | 
[V:3] e4c4z4 | 
[V:4] z12 :
[V:1] C4F8 | 
[V:2] A6B4AB | 
[V:3] z12 | 
[V:4] z12 | 
[V:1] E4G3FD4 | 
[V:2] c2A2G2c4B2 | 
[V:3] z12 | 
[V:4] z12 :
[V:1] E4C4z4 | 
[V:2] c12 | 
[V:3] g4g4e4 | 
[V:4] z12 | 
[V:1] A,6B,4A,B, | 
[V:2] z12 | 
[V:3] c4f8 | 
[V:4] z12 :
[V:1] C4D2B,4A,B, | 
[V:2] g8g4 | 
[V:3] e4d8 | 
[V:4] z12 | 
[V:1] C4z4z4 | 
[V:2] e4d2g4f2 | 
[V:3] c4z4z4 | 
[V:4] z4G,4G,4 :
[V:1] z12 | 
[V:2] e4d6c2 | 
[V:3] z12 | 
[V:4] G,4F,8 | 
[V:1] E4F8 | 
[V:2] c4d8 | 
[V:3] z2G2A2B4A2 | 
[V:4] E,4D,8 :
[V:1] G3AG2c3de2- | 
[V:2] e4c8 | 
[V:3] c2e3f/g/a2g4 | 
[V:4] C,12 | 
[V:1] e2d3cBAB3A | 
[V:2] B8G4 | 
[V:3] e3fg2e2d4 | 
[V:4] G,4G,4G,4 :
[V:1] c4z4G4 | 
[V:2] g6fed4 | 
[V:3] c8B4 | 
[V:4] C,8z4 | 
[V:1] A4A8 | 
[V:2] e4f8 | 
[V:3] A4F8 | 
[V:4] C8C4 :
[V:1] G6FED4 | 
[V:2] d4d4g4 | 
[V:3] G4G4G4 | 
[V:4] B,8B,4 | 
[V:1] E2C2F4G2A2 | 
[V:2] g2a4a2g2e2- | 
[V:3] E2F3GA2B2c2 | 
[V:4] C8C4 :
[V:1] G2E4C2D2F2 | 
[V:2] e2c4G2A2B2 | 
[V:3] C3DE3FD4 | 
[V:4] G,8z4 | 
[V:1] E4F3GA4 | 
[V:2] c4a4f4 | 
[V:3] z2A4F4A2 | 
[V:4] C8C4 :
[V:1] z4z4G4 | 
[V:2] e2g4f2d2e2 | 
[V:3] G2E4F2G4 | 
[V:4] B,8B,4 | 
[V:1] A4G2E2FEDC | 
[V:2] f4e4z4 | 
[V:3] F3EC8 | 
[V:4] C8C4 :
[V:1] B,4E3FG4 | 
[V:2] e3dB4z2G2 | 
[V:3] E4E4E4 | 
[V:4] G,8C4 | 
[V:1] F6G2A4 | 
[V:2] B2d4B2A4 | 
[V:3] D6E2F4 | 
[V:4] D8C4 :
[V:1] B4c6A2 | 
[V:2] G2d2c2e4f2 | 
[V:3] G4z4c4 | 
[V:4] B,4A,8 | 
[V:1] B2A2z2d2c2A2 | 
[V:2] g2f2d2g3ef2 | 
[V:3] d6B2c4 | 
[V:4] G,2D,2G,4A,4 :
[V:1] B4G2A3GF2 | 
[V:2] g4z2e2f2d2- | 
[V:3] d2B2c4d4 | 
[V:4] G,4z4z4 | 
[V:1] E4D8 | 
[V:2] d2c2_B2G2A4 | 
[V:3] A4_B4A2F2 | 
[V:4] z4G,4D,4 :
[V:1] z4D4G4 | 
[V:2] G4z4d4 | 
[V:3] G2_B3A/_B/A2G2=B2 | 
[V:4] E,2G,4F,2G,4 | 
[V:1] A2c2B4A2B2 | 
[V:2] c4d2e2f2g2- | 
[V:3] c2e2d3Bc2d2 | 
[V:4] C,4G,4A,2G,2 :
[V:1] G2c3AB2c4 | 
[V:2] g2e2d2f2e2g2- | 
[V:3] e2ce2gfeg3f | 
[V:4] C4D4C4 | 
[V:1] d2e4c2d4 | 
[V:2] g2a4g4g2 | 
[V:3] d2c2e4d4 | 
[V:4] B,2A,2C4B,2G,2- :
[V:1] B2c3BAGF4 | 
[V:2] G2A3FG2A3B | 
[V:3] z4c4d4 | 
[V:4] G,2F,2E,4D,4 | 
[V:1] G2A4F2G3E | 
[V:2] c4A4B2G2 | 
[V:3] e4f2d4e2 | 
[V:4] C,4D,4B,,2C,2 :
[V:1] FGABc2d2G2A2 | 
[V:2] z2A3Ff2g2e2 | 
[V:3] d4c2_B2c2_e2 | 
[V:4] D,2F,4D,2_E,2C,2 | 
[V:1] _B3A2GG4^F2 | 
[V:2] f3ed2c2d4 | 
[V:3] d3c_B2G2A4 | 
[V:4] _B,,3C,D,2_E,2D,4 :
[V:1] G12 |]  
[V:2] d12 |]  
[V:3] G12 |]  
[V:4] G,,12 |]  



